static/images/create-project/create-project.svg

<svg width="450" height="413" viewBox="0 0 450 413" fill="none" xmlns="http://www.w3.org/2000/svg">
<ellipse rx="194.508" ry="113.509" transform="matrix(-0.841337 -0.540511 -0.540511 0.841337 225 212.162)" fill="#8FF73E" fill-opacity="0.15"/>
<g clip-path="url(#clip0)">
<path fill-rule="evenodd" clip-rule="evenodd" d="M173.959 48.3966C170.554 44.3995 168.249 39.5012 168.634 34.0124C169.744 18.1976 191.759 21.6767 196.041 29.6586C200.323 37.6405 199.814 57.8873 194.28 59.3139C192.073 59.8828 187.371 58.4892 182.585 55.6048L185.589 76.855H167.853L173.959 48.3966Z" fill="#B28B67"/>
<path fill-rule="evenodd" clip-rule="evenodd" d="M189.035 20.9652C186.612 20.2262 183.094 19.9756 181.614 20.1452C182.456 18.1282 182.79 15.881 182.518 13.6929C182.253 11.5668 181.303 9.75652 180.424 7.85954C180.019 6.98515 179.56 6.11553 178.876 5.44673C178.179 4.76536 177.296 4.3156 176.371 4.10102C175.424 3.88138 174.434 3.89967 173.486 4.099C173.066 4.18716 172.69 4.37898 172.278 4.48561C171.857 4.59486 171.653 4.33114 171.347 4.06611C170.61 3.42751 169.529 3.11226 168.597 2.99943C167.551 2.8729 166.465 3.03071 165.467 3.37461C164.496 3.7094 163.563 4.25305 162.861 5.04504C162.549 5.39758 162.265 5.79885 162.08 6.24188C162.005 6.4237 161.992 6.5314 161.811 6.598C161.643 6.65966 161.447 6.66144 161.274 6.72012C159.599 7.28724 158.168 8.581 157.388 10.2421C156.933 11.2112 156.718 12.9175 156.777 14.8299C156.836 16.7423 158.563 21.7324 160.178 23.5525C161.619 25.1771 163.739 26.2492 165.784 26.7185C164.426 28.2701 163.523 30.2089 162.854 32.1807C162.129 34.3225 161.679 36.548 161.514 38.8156C161.356 40.9701 161.341 43.2484 161.847 45.3569C162.319 47.3286 163.329 48.9462 165.016 49.9723C165.789 50.4424 166.62 50.7955 167.456 51.1183C168.28 51.4363 169.107 51.7456 169.97 51.924C171.604 52.2617 173.486 52.2037 174.745 50.9034C175.198 50.4347 175.697 49.8456 176.028 49.273C176.147 49.067 176.218 48.9323 176.074 48.731C175.901 48.49 175.621 48.3052 175.398 48.1166C174.13 47.0413 173.344 45.6058 173.147 43.8998C172.946 42.1688 173.411 39.9346 175.094 39.1792C177.171 38.2467 179.459 39.317 181.305 40.3148C182.09 37.5452 183.701 35.0515 186.227 33.7811C189.022 32.3756 192.229 32.2112 195.101 31.0053C195.849 30.691 196.612 30.3343 197.163 29.694C197.393 29.4265 197.663 29.0793 197.755 28.7254C197.876 28.2605 197.576 27.8708 197.344 27.5083C196.116 25.5866 191.459 21.7042 189.035 20.9652Z" fill="#47183A"/>
</g>
<g clip-path="url(#clip1)">
<path fill-rule="evenodd" clip-rule="evenodd" d="M159.725 130.801L186.517 224.821L206.064 294.118H220.322L199.549 130.801H159.725Z" fill="#303039"/>
<path fill-rule="evenodd" clip-rule="evenodd" d="M159.725 130.801L186.517 224.821L206.064 294.118H220.322L199.549 130.801H159.725Z" fill="url(#paint0_linear)"/>
<path fill-rule="evenodd" clip-rule="evenodd" d="M152.56 130.801C151.94 179.26 149.827 205.691 149.176 210.093C148.525 214.496 138.687 242.504 119.661 294.118H134.431C158.652 244.604 172.173 216.595 174.994 210.093C177.815 203.592 186.519 177.161 199.63 130.801H152.56Z" fill="#303039"/>
<path fill-rule="evenodd" clip-rule="evenodd" d="M118.341 307.42L119.08 291.901H134.599C141.957 297.074 151.564 301.262 163.42 304.464V307.42H135.338L125.731 305.942V307.42H118.341Z" fill="#191847"/>
<path fill-rule="evenodd" clip-rule="evenodd" d="M204.064 307.42L204.803 291.901H220.322C227.68 297.074 237.287 301.262 249.142 304.464V307.42H221.061L211.454 305.942V307.42H204.064Z" fill="#191847"/>
</g>
<g clip-path="url(#clip2)">
<path fill-rule="evenodd" clip-rule="evenodd" d="M226.267 135.326L247.201 155.748C253.292 158.346 258.282 161.215 262.173 164.355C263.048 165.41 264 167.432 259.884 166.527C255.767 165.623 251.397 164.856 250.623 166.195C249.85 167.533 252.129 169.585 250.699 171.337C249.746 172.505 246.541 168.789 241.082 160.191L219.314 147.357L226.267 135.326ZM133.348 138.206L148.791 138.267C139.256 169.049 134.108 185.381 133.348 187.265C131.639 191.502 135.257 197.957 136.805 201.425C131.765 203.68 132.302 195.328 125.944 198.286C120.141 200.986 115.726 205.878 109.022 201.741C108.197 201.232 107.294 199.317 109.477 197.82C114.914 194.092 122.749 187.567 123.808 185.419C125.252 182.49 128.432 166.753 133.348 138.206Z" fill="#B28B67"/>
<path fill-rule="evenodd" clip-rule="evenodd" d="M177.235 73.4057L183.625 72.3097C194.627 99.7929 213.835 124.765 241.249 147.226L220.533 172.393C193.123 140.412 176.226 107.416 177.235 73.4057Z" fill="#7D1818"/>
<path fill-rule="evenodd" clip-rule="evenodd" d="M177.235 73.4057L183.625 72.3097C194.627 99.7929 213.835 124.765 241.249 147.226L220.533 172.393C193.123 140.412 176.226 107.416 177.235 73.4057Z" fill="black" fill-opacity="0.12"/>
<path fill-rule="evenodd" clip-rule="evenodd" d="M149.379 153.71H206.281C193.098 121.657 186.507 94.4275 186.507 72.0228L169.342 69.4653C155.852 91.1609 152.043 117.873 149.379 153.71Z" fill="#DDE3E9"/>
<path fill-rule="evenodd" clip-rule="evenodd" d="M168.979 69.4775C168.981 69.4734 168.983 69.4694 168.985 69.4653L170.106 69.4653C171.446 69.5115 173.488 69.5947 176.232 69.7149L180.379 81.5677C180.818 96.019 183.38 125.142 188.066 168.938H150.765C150.863 171.963 151.024 175.016 151.249 178.097H123.514C127.663 131.292 142.813 95.0817 168.965 69.4653L168.979 69.4775V69.4775Z" fill="#7D1818"/>
<path fill-rule="evenodd" clip-rule="evenodd" d="M153.229 130.235C154.291 149.09 156.948 162.088 161.203 169.229H150.775C150.318 155.663 151.136 142.665 153.229 130.235V130.235Z" fill="black" fill-opacity="0.1"/>
<path fill-rule="evenodd" clip-rule="evenodd" d="M159.068 146.32L177.46 137.77V146.32H159.068Z" fill="white" fill-opacity="0.2"/>
</g>
<path d="M356.444 245.641H366.198L369.302 307.716H356.444V245.641Z" fill="#ECC098"/>
<rect x="273.972" y="245.641" width="82.4713" height="62.0752" fill="#F1D1B4"/>
<path d="M293.925 221.697L315.652 224.801L297.916 245.641H273.972L293.925 221.697Z" fill="#ECC098"/>
<path d="M345.802 225.244L351.566 223.471L366.198 245.64H356.444L345.802 225.244Z" fill="#F1D1B4"/>
<defs>
<linearGradient id="paint0_linear" x1="190.023" y1="130.801" x2="190.023" y2="294.118" gradientUnits="userSpaceOnUse">
<stop stop-opacity="0.12"/>
<stop offset="1" stop-color="white" stop-opacity="0"/>
</linearGradient>
<clipPath id="clip0">
<rect width="100.503" height="76.855" fill="white" transform="translate(127.948)"/>
</clipPath>
<clipPath id="clip1">
<rect width="221.697" height="176.619" fill="white" transform="translate(65.1338 130.801)"/>
</clipPath>
<clipPath id="clip2">
<rect width="189.182" height="138.191" fill="white" transform="translate(82.8696 69.4653)"/>
</clipPath>
</defs>
</svg>

<svg width="450" height="413" fill="none" xmlns="http://www.w3.org/2000/svg"><ellipse rx="194.508" ry="113.509" transform="scale(-1 1) rotate(-32.718 248.882 489.33)" fill="#8FF73E" fill-opacity=".15"/><g clip-path="url(#clip0)" fill-rule="evenodd" clip-rule="evenodd"><path d="M173.959 48.397c-3.405-3.997-5.71-8.896-5.325-14.385 1.11-15.814 23.125-12.335 27.407-4.353 4.282 7.982 3.773 28.228-1.761 29.655-2.207.569-6.909-.825-11.695-3.71l3.004 21.251h-17.736l6.106-28.458z" fill="#B28B67"/><path d="M189.035 20.965c-2.423-.739-5.941-.99-7.421-.82.842-2.017 1.176-4.264.904-6.452-.265-2.126-1.215-3.936-2.094-5.833-.405-.875-.864-1.744-1.548-2.413a5.29 5.29 0 00-2.505-1.346c-.947-.22-1.937-.201-2.885-.002-.42.088-.796.28-1.208.387-.421.109-.625-.155-.931-.42-.737-.638-1.818-.954-2.75-1.067-1.046-.126-2.132.032-3.13.376-.971.334-1.904.878-2.606 1.67-.312.353-.596.754-.781 1.197-.075.182-.088.29-.269.356-.168.062-.364.063-.537.122-1.675.567-3.106 1.861-3.886 3.522-.455.97-.67 2.675-.611 4.588.059 1.912 1.786 6.902 3.401 8.722 1.441 1.625 3.561 2.697 5.606 3.166-1.358 1.552-2.261 3.49-2.93 5.463a26.723 26.723 0 00-1.34 6.635c-.158 2.154-.173 4.432.333 6.54.472 1.973 1.482 3.59 3.169 4.616.773.47 1.604.823 2.44 1.146.824.318 1.651.628 2.514.806 1.634.338 3.516.28 4.775-1.02.453-.47.952-1.058 1.283-1.631.119-.206.19-.34.046-.542-.173-.241-.453-.426-.676-.614a6.366 6.366 0 01-2.251-4.217c-.201-1.731.264-3.965 1.947-4.72 2.077-.933 4.365.137 6.211 1.135.785-2.77 2.396-5.264 4.922-6.534 2.795-1.405 6.002-1.57 8.874-2.776.748-.314 1.511-.67 2.062-1.311.23-.267.5-.615.592-.969.121-.465-.179-.854-.411-1.217-1.228-1.921-5.885-5.804-8.309-6.543z" fill="#47183A"/></g><g clip-path="url(#clip1)" fill-rule="evenodd" clip-rule="evenodd"><path d="M159.725 130.801l26.792 94.02 19.547 69.297h14.258l-20.773-163.317h-39.824z" fill="#303039"/><path d="M159.725 130.801l26.792 94.02 19.547 69.297h14.258l-20.773-163.317h-39.824z" fill="url(#paint0_linear)"/><path d="M152.56 130.801c-.62 48.459-2.733 74.89-3.384 79.292-.651 4.403-10.489 32.411-29.515 84.025h14.77c24.221-49.514 37.742-77.523 40.563-84.025 2.821-6.501 11.525-32.932 24.636-79.292h-47.07z" fill="#303039"/><path d="M118.341 307.42l.739-15.519h15.519c7.358 5.173 16.965 9.361 28.821 12.563v2.956h-28.082l-9.607-1.478v1.478h-7.39zM204.064 307.42l.739-15.519h15.519c7.358 5.173 16.965 9.361 28.82 12.563v2.956h-28.081l-9.607-1.478v1.478h-7.39z" fill="#191847"/></g><g clip-path="url(#clip2)" fill-rule="evenodd" clip-rule="evenodd"><path d="M226.267 135.326l20.934 20.422c6.091 2.598 11.081 5.467 14.972 8.607.875 1.055 1.827 3.077-2.289 2.172-4.117-.904-8.487-1.671-9.261-.332-.773 1.338 1.506 3.39.076 5.142-.953 1.168-4.158-2.548-9.617-11.146l-21.768-12.834 6.953-12.031zm-92.919 2.88l15.443.061c-9.535 30.782-14.683 47.114-15.443 48.998-1.709 4.237 1.909 10.692 3.457 14.16-5.04 2.255-4.503-6.097-10.861-3.139-5.803 2.7-10.218 7.592-16.922 3.455-.825-.509-1.728-2.424.455-3.921 5.437-3.728 13.272-10.253 14.331-12.401 1.444-2.929 4.624-18.666 9.54-47.213z" fill="#B28B67"/><path d="M177.235 73.406l6.39-1.096c11.002 27.483 30.21 52.455 57.624 74.916l-20.716 25.167c-27.41-31.981-44.307-64.977-43.298-98.987z" fill="#7D1818"/><path d="M177.235 73.406l6.39-1.096c11.002 27.483 30.21 52.455 57.624 74.916l-20.716 25.167c-27.41-31.981-44.307-64.977-43.298-98.987z" fill="#000" fill-opacity=".12"/><path d="M149.379 153.71h56.902c-13.183-32.053-19.774-59.283-19.774-81.687l-17.165-2.558c-13.49 21.696-17.299 48.408-19.963 84.245z" fill="#DDE3E9"/><path d="M168.979 69.478l.006-.013h1.121c1.34.046 3.382.13 6.126.25l4.147 11.853c.439 14.451 3.001 43.574 7.687 87.37h-37.301c.098 3.025.259 6.078.484 9.159h-27.735c4.149-46.805 19.299-83.015 45.451-108.632l.014.013z" fill="#7D1818"/><path d="M153.229 130.235c1.062 18.855 3.719 31.853 7.974 38.994h-10.428c-.457-13.566.361-26.564 2.454-38.994z" fill="#000" fill-opacity=".1"/><path d="M159.068 146.32l18.392-8.55v8.55h-18.392z" fill="#fff" fill-opacity=".2"/></g><path d="M356.444 245.641h9.754l3.104 62.075h-12.858v-62.075z" fill="#ECC098"/><path fill="#F1D1B4" d="M273.972 245.641h82.471v62.075h-82.471z"/><path d="M293.925 221.697l21.727 3.104-17.736 20.84h-23.944l19.953-23.944z" fill="#ECC098"/><path d="M345.802 225.244l5.764-1.773 14.632 22.169h-9.754l-10.642-20.396z" fill="#F1D1B4"/><defs><clipPath id="clip0"><path fill="#fff" transform="translate(127.948)" d="M0 0h100.503v76.855H0z"/></clipPath><clipPath id="clip1"><path fill="#fff" transform="translate(65.134 130.801)" d="M0 0h221.697v176.619H0z"/></clipPath><clipPath id="clip2"><path fill="#fff" transform="translate(82.87 69.465)" d="M0 0h189.182v138.191H0z"/></clipPath><linearGradient id="paint0_linear" x1="190.023" y1="130.801" x2="190.023" y2="294.118" gradientUnits="userSpaceOnUse"><stop stop-opacity=".12"/><stop offset="1" stop-color="#fff" stop-opacity="0"/></linearGradient></defs></svg>
